X: 29224
T: New Found Out, The
R: reel
M: 4/4
K: Dmajor
|:A3B ADFA|dBBA G3B|AF3 ABdf|edBA BcdB|
AD D2 ADFA|dBBA B3d|AF3 ABdf|1 edBA BddB:|2 edBA Bdde:|
|:f3a gfeg|fedc BcdB|fAdf g2fg|afed Bdde|
fAdf gfeg|fedc BcdB|ADFA ABdf|1 edBA Bcde:|2 edBA BddB||

